X: 1
T: L\aat till far
C: Pers Erik Olsson, R\"attvik
O: Sweden
D: Pers Erik, Pers Hans: L\aatar fr\aan \"Ostbj\"orka
D: Pers Hans Olsson och Bj\"orn St\aabi (GIGA GCD-25 1995)
D: H\ojreby spillemandlaug: - p\aa lang afstand (RICO RSCD 5098 1993)
N: L\aat till Far or "Tune to my Father" was written by the R\"attvik fiddler Pers Erik Olsson
N: to commemorate the 100th anniversary of the birth of his father, the well-known fiddler Pers
N: Olof Olsson. Folk fiddling is a generational avocation for this family. The composer is in
N: turn father to another renowned folk fiddler, Pers Hans Olsson.
Z: 2006 John Chambers <jc@trillian.mit.edu>
M: C|
L: 1/8
K: Dm
 A,2 \
| "Dm"D2DE "A(m)"FEDC | "Dm"D4- D2DE | "Dm"F2Ac "G"=B2AG | "A(Dm)"A4- "A"A2A2 |
| "Bb"d3c d2c2 | "F"A3G "Dm"F2AF | "Gm"G3F "C"E2{D}C2 | "Dm"D4- D2 :|
|: A2 \
| "Dm"f3e f2g2 | "Dm"a3g a2g2 | "Dm"f3e d2c2 | "Bb"d3c d2c2 |
| "F"A3G "Dm"F2AF |1 "Gm"G4 F2G2 | "A"A4- A2 :|2 "Gm"G3F "C"E2{D}C2 | "Dm"D4- D2 |]
%%sep 1 1 500
%%sep 1 1 500
